resources/svg/transaction-o.svg

<svg xmlns="http://www.w3.org/2000/svg" data-name="Layer 1" viewBox="0 0 24 24" fill="currentColor" stroke="none"><path d="M20 2H10a3 3 0 0 0-3 3v7a3 3 0 0 0 3 3h10a3 3 0 0 0 3-3V5a3 3 0 0 0-3-3Zm1 10a1 1 0 0 1-1 1H10a1 1 0 0 1-1-1V5a1 1 0 0 1 1-1h10a1 1 0 0 1 1 1Zm-3.5-4a1.49 1.49 0 0 0-1 .39 1.5 1.5 0 1 0 0 2.22 1.5 1.5 0 1 0 1-2.61ZM16 17a1 1 0 0 0-1 1v1a1 1 0 0 1-1 1H4a1 1 0 0 1-1-1v-4h1a1 1 0 0 0 0-2H3v-1a1 1 0 0 1 1-1 1 1 0 0 0 0-2 3 3 0 0 0-3 3v7a3 3 0 0 0 3 3h10a3 3 0 0 0 3-3v-1a1 1 0 0 0-1-1ZM6 18h1a1 1 0 0 0 0-2H6a1 1 0 0 0 0 2Z"/></svg>

<svg xmlns="http://www.w3.org/2000/svg" data-name="Layer 1" viewBox="0 0 24 24" fill="currentColor" stroke="none"><path d="M20,2H10A3,3,0,0,0,7,5v7a3,3,0,0,0,3,3H20a3,3,0,0,0,3-3V5A3,3,0,0,0,20,2Zm1,10a1,1,0,0,1-1,1H10a1,1,0,0,1-1-1V5a1,1,0,0,1,1-1H20a1,1,0,0,1,1,1ZM17.5,8a1.49,1.49,0,0,0-1,.39,1.5,1.5,0,1,0,0,2.22A1.5,1.5,0,1,0,17.5,8ZM16,17a1,1,0,0,0-1,1v1a1,1,0,0,1-1,1H4a1,1,0,0,1-1-1V15H4a1,1,0,0,0,0-2H3V12a1,1,0,0,1,1-1A1,1,0,0,0,4,9a3,3,0,0,0-3,3v7a3,3,0,0,0,3,3H14a3,3,0,0,0,3-3V18A1,1,0,0,0,16,17ZM6,18H7a1,1,0,0,0,0-2H6a1,1,0,0,0,0,2Z"/></svg>
